docs/svg/wds-icons-quiz-small.svg

<svg xmlns="http://www.w3.org/2000/svg" viewBox="0 0 18 18">
  <path d="M2,4.41421356 L1.70710678,4.70710678 C1.31658249,5.09763107 0.683417511,5.09763107 0.292893219,4.70710678 C-0.0976310729,4.31658249 -0.0976310729,3.68341751 0.292893219,3.29289322 L2.29289322,1.29289322 C2.68341751,0.902368927 3.31658249,0.902368927 3.70710678,1.29289322 C4.09763107,1.68341751 4.09763107,2.31658249 3.70710678,2.70710678 L3.41421356,3 L4.09292354,3.67870998 C5.19938943,2.81894463 6.53813014,2.24356968 8,2.0617308 L8,1 C8,0.44771525 8.44771525,0 9,0 C9.55228475,0 10,0.44771525 10,1 L10,2.06295585 C10.448378,2.119302 10.8918715,2.21288737 11.3245983,2.34135313 C11.8540443,2.49853243 12.1558262,3.05515224 11.9986469,3.58459829 C11.8414676,4.11404433 11.2848478,4.41582616 10.7554017,4.25864687 C10.1845658,4.08917995 9.59075783,4 9,4 C7.36199112,4 5.87887187,4.65382145 4.79697284,5.71513377 C4.77112489,5.74379099 4.74379099,5.77112489 4.71513377,5.79697284 C3.65382145,6.87887187 3,8.36199112 3,10 C3,13.3177153 5.68228475,16 9,16 C12.3177153,16 15,13.3177153 15,10 C15,9.93470006 14.9997124,9.91025722 14.9986319,9.88756515 C14.9978892,9.87196939 14.997025,9.86380746 14.9961301,9.85888544 C14.8973344,9.31550909 15.2577382,8.79492579 15.8011146,8.69613009 C16.3444909,8.59733439 16.8650742,8.95773821 16.9638699,9.50111456 C16.981637,9.59883338 16.9916541,9.69343927 16.9963681,9.79243485 C16.9994673,9.85751621 17,9.90279994 17,10 C17,14.4222847 13.4222847,18 9,18 C4.57771525,18 1,14.4222847 1,10 C1,8.14973432 1.62629732,6.44731485 2.67870998,5.09292354 L2,4.41421356 Z M9,9.58578644 L16.2928932,2.29289322 C16.6834175,1.90236893 17.3165825,1.90236893 17.7071068,2.29289322 C18.0976311,2.68341751 18.0976311,3.31658249 17.7071068,3.70710678 L9.70710678,11.7071068 C9.31658249,12.0976311 8.68341751,12.0976311 8.29289322,11.7071068 L6.29289322,9.70710678 C5.90236893,9.31658249 5.90236893,8.68341751 6.29289322,8.29289322 C6.68341751,7.90236893 7.31658249,7.90236893 7.70710678,8.29289322 L9,9.58578644 Z"/>
</svg>

<svg xmlns="http://www.w3.org/2000/svg" viewBox="0 0 18 18">
  <path d="M2 4.414l-.293.293A1 1 0 0 1 .293 3.293l2-2a1 1 0 1 1 1.414 1.414L3.414 3l.679.679A7.96 7.96 0 0 1 8 2.062V1a1 1 0 1 1 2 0v1.063c.448.056.892.15 1.325.278a1 1 0 0 1-.57 1.918A6.185 6.185 0 0 0 9 4a5.98 5.98 0 0 0-4.285 1.797A5.98 5.98 0 0 0 3 10c0 3.318 2.682 6 6 6a5.995 5.995 0 0 0 5.996-6.141 1 1 0 1 1 1.968-.358c.018.098.028.192.032.291A7.995 7.995 0 0 1 9 18c-4.422 0-8-3.578-8-8 0-1.85.626-3.553 1.679-4.907L2 4.414zm7 5.172l7.293-7.293a1 1 0 0 1 1.414 1.414l-8 8a1 1 0 0 1-1.414 0l-2-2a1 1 0 0 1 1.414-1.414L9 9.586z"/>
</svg>
